rospo-icon-theme-classic-common/16x16/apps/com.github.thejambi.psnotes.svg

<svg height="16" width="16" xmlns="http://www.w3.org/2000/svg"><path d="m14 15.212121v-12.3241816c0-.4364849-.3345-.7878788-.75-.7878788h-10.5c-.4155 0-.75.3513939-.75.7878788v12.3241816c0 .436485.3345.787879.75.787879h10.5c.4155 0 .75-.351394.75-.787879z" fill="#4691c8"/><path d="m14 3v-1.3333333c0-.3693334-.3345-.6666667-.75-.6666667h-10.5c-.4155 0-.75.2973333-.75.6666667v1.3333333z" fill="#474747"/><path d="m3.234375 0c-.1297943 0-.234375.1359549-.234375.3046875v1.390625c0 .1687326.1045807.3046875.234375.3046875h.53125c.1297942 0 .234375-.1359549.234375-.3046875v-1.390625c0-.1687326-.1045808-.3046875-.234375-.3046875zm3 0c-.1297943 0-.234375.1359549-.234375.3046875v1.390625c0 .1687326.1045807.3046875.234375.3046875h.53125c.1297942 0 .234375-.1359549.234375-.3046875v-1.390625c0-.1687326-.1045808-.3046875-.234375-.3046875zm3 0c-.129794 0-.234375.1359549-.234375.3046875v1.390625c0 .1687326.104581.3046875.234375.3046875h.53125c.129794 0 .234375-.1359549.234375-.3046875v-1.390625c0-.1687326-.104581-.3046875-.234375-.3046875zm3 0c-.129794 0-.234375.1359549-.234375.3046875v1.390625c0 .1687326.104581.3046875.234375.3046875h.53125c.129794 0 .234375-.1359549.234375-.3046875v-1.390625c0-.1687326-.104581-.3046875-.234375-.3046875z" fill="#8e8e8e"/><path d="m3.25 12.75s2.5.22107 2.5-1.25c0-1.471066-2.4964398-1.250029-2.4964398-1.250029m-.0035602 4.500029.00362-4.49997" fill="none" stroke="#fff" stroke-linecap="round" stroke-linejoin="bevel" stroke-width=".5"/><path d="m7.2509381 14.349989s.1070012.400262.9997395.399974c.8927325-.000286 1.5123401-.243484 1.5123401-.840385 0-2.515575-2.5635942.152755-2.5564432-2.355348-.0073-.602452.3907845-1.268383 1.295781-1.268383.9049925 0 1.2486115.364021 1.2486115.364021" fill="none" stroke="#fff" stroke-linecap="round" stroke-linejoin="round" stroke-width=".5"/><circle cx="5.5" cy="14.5" fill="#fff" r=".5"/><circle cx="11.5" cy="14.5" fill="#fff" r=".5"/></svg>

<svg xmlns="http://www.w3.org/2000/svg" width="16" height="16" version="1">
 <path style="fill:#4691c8" d="M 14,15.212121 14,2.8879394 C 14,2.4514545 13.6655,2.1000606 13.25,2.1000606 l -10.5,0 C 2.3345,2.1000606 2,2.4514545 2,2.8879394 L 2,15.212121 C 2,15.648606 2.3345,16 2.75,16 l 10.5,0 C 13.6655,16 14,15.648606 14,15.212121 Z"/>
 <path style="fill:#474747" d="M 14,3 14,1.6666667 C 14,1.2973333 13.6655,1 13.25,1 L 2.75,1 C 2.3345,1 2,1.2973333 2,1.6666667 L 2,3 Z"/>
 <path style="fill:#8e8e8e" d="M 3.234375 0 C 3.1045807 0 3 0.1359549 3 0.3046875 L 3 1.6953125 C 3 1.8640451 3.1045807 2 3.234375 2 L 3.765625 2 C 3.8954192 2 4 1.8640451 4 1.6953125 L 4 0.3046875 C 4 0.1359549 3.8954192 0 3.765625 0 L 3.234375 0 z M 6.234375 0 C 6.1045807 0 6 0.1359549 6 0.3046875 L 6 1.6953125 C 6 1.8640451 6.1045807 2 6.234375 2 L 6.765625 2 C 6.8954192 2 7 1.8640451 7 1.6953125 L 7 0.3046875 C 7 0.1359549 6.8954192 0 6.765625 0 L 6.234375 0 z M 9.234375 0 C 9.104581 0 9 0.1359549 9 0.3046875 L 9 1.6953125 C 9 1.8640451 9.104581 2 9.234375 2 L 9.765625 2 C 9.895419 2 10 1.8640451 10 1.6953125 L 10 0.3046875 C 10 0.1359549 9.895419 0 9.765625 0 L 9.234375 0 z M 12.234375 0 C 12.104581 0 12 0.1359549 12 0.3046875 L 12 1.6953125 C 12 1.8640451 12.104581 2 12.234375 2 L 12.765625 2 C 12.895419 2 13 1.8640451 13 1.6953125 L 13 0.3046875 C 13 0.1359549 12.895419 0 12.765625 0 L 12.234375 0 z"/>
 <path d="m 3.25,12.75 c 0,0 2.5,0.22107 2.5,-1.25 0,-1.471066 -2.4964398,-1.250029 -2.4964398,-1.250029 M 3.25,14.75 l 0.00362,-4.49997" style="fill:none;stroke:#ffffff;stroke-width:0.5;stroke-linecap:round;stroke-linejoin:bevel"/>
 <path style="fill:none;stroke:#ffffff;stroke-width:0.5;stroke-linecap:round;stroke-linejoin:round" d="m 7.2509381,14.349989 c 0,0 0.1070012,0.400262 0.9997395,0.399974 0.8927325,-2.86e-4 1.5123401,-0.243484 1.5123401,-0.840385 0,-2.515575 -2.5635942,0.152755 -2.5564432,-2.355348 -0.0073,-0.602452 0.3907845,-1.268383 1.295781,-1.268383 0.9049925,0 1.2486115,0.364021 1.2486115,0.364021"/>
 <circle style="fill:#ffffff" cx="5.5" cy="14.5" r=".5"/>
 <circle cx="11.5" cy="14.5" r=".5" style="fill:#ffffff"/>
</svg>
